X: 2072
T: Mrs GENERAL CAMPBELL
C:
Q: "Strathspey."
R: Strathspey.
%R: strathspey
B: James Kerr "Merry Melodies" v.2 p.10 #72
Z: 2016 John Chambers <jc:trillian.mit.edu>
M: C
L: 1/16
K: Am
ue2 |\
c3A AAA2 (uE3A) vA3uc | vB3vGud3uB vg3vdue3ud |\
c3A AAA2 (EA3) A3uc | B3G g3B AAA2 A2ue2 |\
vc3uA AAA2 (uEA3) vA3uc |
vB3vGud3uB vg3vdue3ud |\
c3A AAA2 (EA3) A3uc | B3G g3B AAA2 A2 :|\
ug2 |\
va3vg(a3b) va3vb(a3e) | g3b e3ug BG3 d3uB |
a3g(a3b) a3b(a3e) | d3eg3B AAA2 A3ug |\
ab3 ga3 eg3 dg3 | Bg3 dg3 vB3vGud3uB |\
c3Ad3B d3eg3a | ge3g3B AAA2 A2 |]

%%sep 1 1 500
%%sep 1 1 500

